X: 1
T:Kausler Schottisch
S:collection Elisabeth und Christoph Huspeka
A:Franken
Z:abc transcription Simon Wascher
N:please mail errors to: simon.wascher@chello.at
M:2/4
L:1/16
K:G
ed|c2B2 c2dc|B2d2 B2AB|c2FA c2dc|B2d2 B2ed|
c2B2 c2dc|B2d2 B2AB|c2FA c2dc|B6:|
|:B2|d3B d3B|G2G2 c2B2|A3A c3B|ABcB G2B2|
d3B d3B|G2G2 c2B2|A3A c3B|G6:|
K:C
G2|A2B2 c2d2|e2cd e2c2|d2Bc d2B2|c2e2 c2G2|
A2B2 c2d2|e2cd e2c2|d2Bc d2B2|c6:|
